X:21172 
T:RICK'S RAMBLES (hornpipe) 
B:DMI.0940
Z:Nordberg/Black
R:hornpipe
%Q:1/4=150
M:C|
L:1/8
K:G
EF|GFGA BDEF|GBAG FGAc|dgfe dcBc|d2ed cAFA|
GFGA GBdB|cBAG FGAc|dgfe dcEF|A2G2G2:|
Bc|dcBc edBG|A2EF AGFE|DddB cAEF|GBAF GDB,D|
GDEF GBdB|cBAG FGAc|dgfe dcEF|A2G2G2:|

%%%

